src/assets/trusticon.svg

<svg width="32" height="32" viewBox="0 0 32 32" fill="none" xmlns="http://www.w3.org/2000/svg">
<g clip-path="url(#clip0_283_6856)">
<path d="M23.9226 13.7033C23.739 13.9257 23.6617 14.2182 23.707 14.5019L23.9338 15.854C24.0111 16.3235 23.7455 16.7843 23.2985 16.952L22.0143 17.4306C21.7443 17.5326 21.5309 17.7459 21.429 18.0159L21.3041 18.3472V18.3494L20.9504 19.3001C20.7849 19.7471 20.324 20.0124 19.8523 19.9329L18.4999 19.7083C18.2162 19.6608 17.9259 19.7377 17.7034 19.9217L16.6439 20.7929C16.4603 20.945 16.2356 21.0222 16.011 21.0222H16.0089C15.7842 21.0222 15.5618 20.945 15.376 20.7929L14.3165 19.9217C14.094 19.7381 13.8037 19.6608 13.52 19.7083L12.1679 19.9329C11.6958 20.0124 11.2354 19.7468 11.0699 19.3001L10.7161 18.3494L10.5913 18.0159C10.4893 17.7459 10.2759 17.5304 10.0038 17.4306L8.7218 16.952C8.27475 16.784 8.00949 16.3235 8.08642 15.854L8.31321 14.5019C8.35857 14.2182 8.28128 13.9257 8.09767 13.7033L7.22643 12.6437C6.92452 12.2761 6.92452 11.7452 7.22643 11.3777L8.09767 10.3181C8.28128 10.0956 8.35857 9.80318 8.31321 9.51942L8.08642 8.16702C8.00913 7.69747 8.27475 7.237 8.7218 7.06899L10.006 6.59037C10.2759 6.48841 10.4893 6.27504 10.5913 6.00507L11.0699 4.72089C11.2354 4.27384 11.6962 4.00858 12.1679 4.08805L13.52 4.31267C13.8037 4.3602 14.094 4.28327 14.3165 4.0993L15.376 3.22806C15.7458 2.92398 16.2767 2.92398 16.6442 3.22806L17.7038 4.0993C17.9262 4.28291 18.2165 4.3602 18.5003 4.31267L19.8527 4.08805C20.3244 4.00858 20.7852 4.2742 20.9507 4.72343L21.4319 6.00543C21.5317 6.2754 21.745 6.49095 22.0172 6.59073L23.2992 7.06935C23.7462 7.23736 24.0137 7.69783 23.9346 8.16738L23.7078 9.51978C23.6624 9.80572 23.7397 10.096 23.9233 10.3184L24.7945 11.378C25.0965 11.7456 25.0965 12.2765 24.7945 12.6441L23.9233 13.7036L23.9226 13.7033Z" stroke="#B30000" stroke-width="1.5" stroke-miterlimit="10" stroke-linecap="round"/>
<path d="M16.0022 21.02V21.0222H16" stroke="#B30000" stroke-width="0.780586" stroke-miterlimit="10" stroke-linecap="round"/>
<path d="M16 21.0222V21.02" stroke="#B30000" stroke-width="0.780586" stroke-miterlimit="10" stroke-linecap="round"/>
<path d="M16.2919 21.0219L12.538 28.1765L10.5938 25.1705L7 25.7308L10.5938 18.1339L10.9988 18.3494L11.3526 19.3001C11.518 19.7471 11.9789 20.0124 12.4506 19.9329L13.8026 19.7083C14.0864 19.6608 14.3767 19.7377 14.5991 19.9217L15.6587 20.7929C15.8448 20.9449 16.0673 21.0219 16.2919 21.0219ZM25.5968 25.7308L22.003 25.1705L20.0588 28.1765L16.2941 21.0219C16.5187 21.0219 16.7433 20.9446 16.9269 20.7925L17.9865 19.9213C18.2089 19.7377 18.4992 19.6604 18.783 19.7079L20.1354 19.9326C20.6071 20.012 21.0679 19.7464 21.2334 19.2997L21.5872 18.349H21.5894L25.5968 25.7308Z" stroke="#B30000" stroke-width="1.5" stroke-miterlimit="10" stroke-linecap="round"/>
<path opacity="0.5" d="M14 12.1912L15.3607 13.552L18.5431 10.3696" stroke="#FF0000" stroke-linecap="round" stroke-linejoin="round"/>
<path opacity="0.5" d="M19.4032 15.479C21.3184 13.5638 21.3184 10.4587 19.4032 8.54349C17.488 6.62831 14.3829 6.62831 12.4677 8.54349C10.5526 10.4587 10.5526 13.5638 12.4677 15.479C14.3829 17.3941 17.488 17.3941 19.4032 15.479Z" stroke="#FF0000" stroke-linecap="round" stroke-linejoin="round"/>
</g>
<defs>
<clipPath id="clip0_283_6856">
<rect width="32" height="32" fill="white"/>
</clipPath>
</defs>
</svg>

<svg width="32" height="32" viewBox="0 0 32 32" fill="none" xmlns="http://www.w3.org/2000/svg">
    <path d="M23.923 13.703c-.184.223-.261.515-.216.799l.227 1.352a1 1 0 0 1-.636 1.098l-1.284.479c-.27.102-.483.315-.585.585l-.125.331v.002l-.354.951a.993.993 0 0 1-1.098.633l-1.352-.225a.991.991 0 0 0-.797.214l-1.06.87a.992.992 0 0 1-.632.23h-.002a.996.996 0 0 1-.633-.23l-1.06-.87a.993.993 0 0 0-.796-.214l-1.352.225a.993.993 0 0 1-1.098-.633l-.354-.95-.125-.334a.998.998 0 0 0-.587-.585l-1.282-.479a1 1 0 0 1-.636-1.098l.227-1.352a1.007 1.007 0 0 0-.215-.799l-.872-1.06a.998.998 0 0 1 0-1.265l.872-1.06c.183-.222.26-.515.215-.799l-.227-1.352a1 1 0 0 1 .636-1.098l1.284-.479c.27-.102.483-.315.585-.585l.479-1.284a.993.993 0 0 1 1.098-.633l1.352.225a.991.991 0 0 0 .796-.214l1.06-.87a.996.996 0 0 1 1.268 0l1.06.87c.222.184.512.261.796.214l1.353-.225a.993.993 0 0 1 1.098.635l.48 1.282c.1.27.314.486.586.586l1.282.478a.998.998 0 0 1 .636 1.098l-.227 1.353c-.046.286.032.576.215.798l.872 1.06a.998.998 0 0 1 0 1.266l-.872 1.06h0z" stroke="#004498" stroke-width="1.5" stroke-miterlimit="10" stroke-linecap="round"/>
    <path d="M16.002 21.02v.002H16M16 21.022v-.002" stroke="#004498" stroke-width=".781" stroke-miterlimit="10" stroke-linecap="round"/>
    <path d="m16.292 21.022-3.754 7.155-1.944-3.006L7 25.73l3.594-7.597.405.215.354.951a.993.993 0 0 0 1.098.633l1.352-.225a.991.991 0 0 1 .796.214l1.06.871a.997.997 0 0 0 .633.229zm9.305 4.709-3.594-.56-1.944 3.006-3.765-7.155c.225 0 .45-.077.633-.23l1.06-.87a.992.992 0 0 1 .796-.214l1.352.225a.994.994 0 0 0 1.098-.633l.354-.95h.002l4.008 7.38z" stroke="#004498" stroke-width="1.5" stroke-miterlimit="10" stroke-linecap="round"/>
    <path opacity=".5" d="m14 12.191 1.36 1.361 3.183-3.182" stroke="red" stroke-linecap="round" stroke-linejoin="round"/>
    <path opacity=".5" d="M19.403 15.479a4.904 4.904 0 1 0-6.935-6.936 4.904 4.904 0 0 0 6.935 6.936z" stroke="red" stroke-linecap="round" stroke-linejoin="round"/>
</svg>
